package/converter/svg/light/align-center.svg

<svg xmlns="http://www.w3.org/2000/svg" viewBox="0 0 448 512"><!-- Font Awesome Pro 6.0.0-alpha2 by @fontawesome - https://fontawesome.com License - https://fontawesome.com/license (Commercial License) --><path d="M16 208H432C440.801 208 448 200.801 448 192S440.801 176 432 176H16C7.199 176 0 183.199 0 192S7.199 208 16 208ZM112 80H336C344.801 80 352 72.801 352 64S344.801 48 336 48H112C103.199 48 96 55.199 96 64S103.199 80 112 80ZM432 432H16C7.199 432 0 439.199 0 448S7.199 464 16 464H432C440.801 464 448 456.801 448 448S440.801 432 432 432ZM112 304C103.199 304 96 311.199 96 320S103.199 336 112 336H336C344.801 336 352 328.801 352 320S344.801 304 336 304H112Z"/></svg>

<svg xmlns="http://www.w3.org/2000/svg" viewBox="0 0 448 512"><!--! Font Awesome Pro 6.6.0 by @fontawesome - https://fontawesome.com License - https://fontawesome.com/license (Commercial License) Copyright 2024 Fonticons, Inc. --><path d="M112 48c-8.8 0-16 7.2-16 16s7.2 16 16 16l224 0c8.8 0 16-7.2 16-16s-7.2-16-16-16L112 48zM16 176c-8.8 0-16 7.2-16 16s7.2 16 16 16l416 0c8.8 0 16-7.2 16-16s-7.2-16-16-16L16 176zM96 320c0 8.8 7.2 16 16 16l224 0c8.8 0 16-7.2 16-16s-7.2-16-16-16l-224 0c-8.8 0-16 7.2-16 16zM16 432c-8.8 0-16 7.2-16 16s7.2 16 16 16l416 0c8.8 0 16-7.2 16-16s-7.2-16-16-16L16 432z"/></svg>
